assets/img/menu-waves.svg

<?xml version="1.0" encoding="UTF-8"?>
<svg width="41px" height="34px" viewBox="0 0 41 34" version="1.1" xmlns="http://www.w3.org/2000/svg" xmlns:xlink="http://www.w3.org/1999/xlink">
    <!-- Generator: sketchtool 53.2 (72643) - https://sketchapp.com -->
    <title>6044481C-7D48-4DF1-B4A2-9638144BD170</title>
    <desc>Created with sketchtool.</desc>
    <g id="Aafart---Desktop-HD" stroke="none" stroke-width="1" fill="none" fill-rule="evenodd">
        <g id="Aafart---forside" transform="translate(-1278.000000, -50.000000)" fill="#FFFFFF" fill-rule="nonzero">
            <g id="MENU" transform="translate(1234.000000, 50.000000)">
                <g id="menu-waves" transform="translate(44.000000, 0.000000)">
                    <path d="M3.74415092,8.63336867 C7.72388078,5.18652085 10.8676669,2.46148027 19.3965706,7.32207786 C23.4938337,9.65657983 26.7988863,10.5378187 29.5504395,10.5373593 C34.3679353,10.5373593 37.4889437,7.83437263 40.1885635,5.49481663 C41.1511516,4.66136129 41.2750626,3.18144969 40.4650855,2.18948162 C39.6551084,1.19751355 38.2182875,1.069325 37.2556994,1.90415871 C33.2764251,5.3523849 30.1330945,8.07650656 21.6014575,3.21499006 C10.3314785,-3.20592413 5.05296089,1.36797217 0.811286821,5.0422513 C-0.150845671,5.87616609 -0.275212229,7.35607769 0.534764841,8.34804576 C1.34428636,9.33955437 2.78110732,9.46774293 3.74415092,8.63336867 Z M37.2556994,13.6359385 C33.2764251,17.0832458 30.1330945,19.8078269 21.6014575,14.9467699 C10.3314785,8.52539624 5.05296089,13.0992925 0.811286821,16.7740311 C-0.150845671,17.6084054 -0.275212229,19.088317 0.534764841,20.0789067 C1.34428636,21.0708747 2.78156288,21.1990633 3.74415092,20.364689 C7.72388078,16.9173818 10.8676669,14.1928006 19.3965706,19.0529388 C23.4938337,21.3874407 26.7988863,22.2691391 29.5504395,22.2691391 C34.3679353,22.2691391 37.4889437,19.565693 40.1885635,17.2265965 C41.1511516,16.3922222 41.2750626,14.9123106 40.4650855,13.9212614 C39.655564,12.9283745 38.218743,12.8011048 37.2556994,13.6359385 Z M37.2556994,25.36634 C33.2764251,28.8141067 30.1330945,31.5382284 21.6014575,26.6776308 C10.3314785,20.2562571 5.05296089,24.8301535 0.811286821,28.504892 C-0.150845671,29.3388068 -0.275212229,30.8191779 0.534764841,31.811146 C1.34428636,32.8017357 2.78156288,32.9303837 3.74415092,32.0960094 C7.72388078,28.6477832 10.8672114,25.9245805 19.3965706,30.7837997 C23.4938337,33.1192206 26.7988863,34 29.5504395,34 C34.3679353,34 37.4889437,31.2965539 40.1885635,28.9579168 C41.1511516,28.124002 41.2750626,26.6431715 40.4650855,25.6516629 C39.6551084,24.6601543 38.218743,24.5328847 37.2556994,25.36634 Z" id="Shape"></path>
                </g>
            </g>
        </g>
    </g>
</svg>

<?xml version="1.0" encoding="utf-8"?>
<!-- Generator: Adobe Illustrator 25.0.0, SVG Export Plug-In . SVG Version: 6.00 Build 0)  -->
<svg version="1.1" id="Layer_1" xmlns="http://www.w3.org/2000/svg" xmlns:xlink="http://www.w3.org/1999/xlink" x="0px" y="0px"
	 viewBox="0 0 41 34" style="enable-background:new 0 0 41 34;" xml:space="preserve">
<style type="text/css">
	.st0{fill:#2B6D85;}
</style>
<desc>Created with sketchtool.</desc>
<desc>Created with sketchtool.</desc>
<g id="Aafart---Desktop-HD">
	<g id="Aafart---forside" transform="translate(-1278.000000, -50.000000)">
		<g id="MENU" transform="translate(1234.000000, 50.000000)">
			<g id="menu-waves" transform="translate(44.000000, 0.000000)">
				<path id="Shape" class="st0" d="M3.7,8.6c4-3.4,7.1-6.2,15.7-1.3c4.1,2.3,7.4,3.2,10.2,3.2c4.8,0,7.9-2.7,10.6-5
					c1-0.8,1.1-2.3,0.3-3.3c-0.8-1-2.2-1.1-3.2-0.3c-4,3.4-7.1,6.2-15.7,1.3C10.3-3.2,5.1,1.4,0.8,5c-1,0.8-1.1,2.3-0.3,3.3
					C1.3,9.3,2.8,9.5,3.7,8.6z M37.3,13.6c-4,3.4-7.1,6.2-15.7,1.3C10.3,8.5,5.1,13.1,0.8,16.8c-1,0.8-1.1,2.3-0.3,3.3
					c0.8,1,2.2,1.1,3.2,0.3c4-3.4,7.1-6.2,15.7-1.3c4.1,2.3,7.4,3.2,10.2,3.2c4.8,0,7.9-2.7,10.6-5c1-0.8,1.1-2.3,0.3-3.3
					C39.7,12.9,38.2,12.8,37.3,13.6z M37.3,25.4c-4,3.4-7.1,6.2-15.7,1.3c-11.3-6.4-16.5-1.8-20.8,1.8c-1,0.8-1.1,2.3-0.3,3.3
					c0.8,1,2.2,1.1,3.2,0.3c4-3.4,7.1-6.2,15.7-1.3c4.1,2.3,7.4,3.2,10.2,3.2c4.8,0,7.9-2.7,10.6-5c1-0.8,1.1-2.3,0.3-3.3
					C39.7,24.7,38.2,24.5,37.3,25.4z"/>
			</g>
		</g>
	</g>
</g>
</svg>
